icon/fa/glass-water-droplet.svg

<svg xmlns="http://www.w3.org/2000/svg" viewBox="0 0 384 512"><!--! Font Awesome Free 6.1.2 by @fontawesome - https://fontawesome.com License - https://fontawesome.com/license/free (Icons: CC BY 4.0, Fonts: SIL OFL 1.1, Code: MIT License) Copyright 2022 Fonticons, Inc.--><path d="M256 196c0 33.1-28.7 60-64 60s-64-26.9-64-60c0-24.9 33.7-70.1 52.2-93.5 6.1-7.73 17.5-7.73 23.6 0 18.5 23.4 52.2 68.6 52.2 93.5zM352 0c8.9 0 17.4 3.692 23.4 10.19 6.1 6.5 9.2 15.23 8.5 24.09L355.1 437.7c-3 41.9-37.8 74.3-79.8 74.3H108.7c-41.98 0-76.81-32.4-79.8-74.3L.081 34.28A32.008 32.008 0 0 1 8.58 10.19 32.009 32.009 0 0 1 32 0h320zM96 304c20.1 10.1 43.9 10.1 64 0s43.9-10.1 64 0 43.9 10.1 64 0l12.1-6.5L317.6 64H66.37l16.68 233.5L96 304z"/></svg>

<svg xmlns="http://www.w3.org/2000/svg" viewBox="0 0 384 512" height="1em" width="1em">
<!--! Font Awesome Free 6.1.2 by @fontawesome - https://fontawesome.com License - https://fontawesome.com/license/free (Icons: CC BY 4.0, Fonts: SIL OFL 1.1, Code: MIT License) Copyright 2022 Fonticons, Inc.-->
  <path d="M256 196C256 229.1 227.3 256 192 256C156.7 256 128 229.1 128 196C128 171.1 161.7 125.9 180.2 102.5C186.3 94.77 197.7 94.77 203.8 102.5C222.3 125.9 256 171.1 256 196zM352 0C360.9 0 369.4 3.692 375.4 10.19C381.5 16.69 384.6 25.42 383.9 34.28L355.1 437.7C352.1 479.6 317.3 512 275.3 512H108.7C66.72 512 31.89 479.6 28.9 437.7L.0813 34.28C-.5517 25.42 2.527 16.69 8.58 10.19C14.63 3.692 23.12 0 32 0L352 0zM96 304C116.1 314.1 139.9 314.1 160 304C180.1 293.9 203.9 293.9 224 304C244.1 314.1 267.9 314.1 288 304L300.1 297.5L317.6 64H66.37L83.05 297.5L96 304z"/>
</svg>
